img/react.svg

<?xml version="1.0" encoding="UTF-8"?>
<svg xmlns="http://www.w3.org/2000/svg" xmlns:xlink="http://www.w3.org/1999/xlink" width="400pt" height="400pt" viewBox="0 0 400 400" version="1.1">
<g id="surface1">
<path style=" stroke:none;fill-rule:nonzero;fill:rgb(13.333333%,13.333333%,13.333333%);fill-opacity:1;" d="M 0 0 L 399.957031 0 L 399.957031 399.957031 L 0 399.957031 Z M 0 0 "/>
<path style=" stroke:none;fill-rule:nonzero;fill:rgb(0%,84.705882%,100%);fill-opacity:1;" d="M 233.113281 199.734375 C 233.113281 218.207031 218.140625 233.179688 199.667969 233.179688 C 181.195312 233.179688 166.222656 218.207031 166.222656 199.734375 C 166.222656 181.261719 181.195312 166.289062 199.667969 166.289062 C 218.140625 166.289062 233.113281 181.261719 233.113281 199.734375 Z M 233.113281 199.734375 "/>
<path style="fill:none;stroke-width:144.7456;stroke-linecap:butt;stroke-linejoin:miter;stroke:rgb(0%,84.705882%,100%);stroke-opacity:1;stroke-miterlimit:10;" d="M 1806.495947 1191.9021 C 2212.714561 1191.9021 2590.094268 1250.216064 2874.595732 1348.112842 C 3217.411162 1466.08376 3428.189639 1644.983936 3428.189639 1806.990732 C 3428.189639 1975.783154 3204.794141 2165.88668 2836.709326 2287.815879 C 2558.392676 2379.987285 2192.110293 2428.193496 1806.495947 2428.193496 C 1411.091924 2428.193496 1036.786953 2382.991338 755.289541 2286.790967 C 399.185596 2165.10916 184.69623 1972.602393 184.69623 1806.990732 C 184.69623 1646.291582 386.003105 1468.805078 724.012051 1351.010869 C 1009.609111 1251.488369 1396.283711 1191.9021 1806.495947 1191.9021 Z M 1806.495947 1191.9021 " transform="matrix(0.110528,0,0,0.110528,0,0)"/>
<path style="fill:none;stroke-width:144.7456;stroke-linecap:butt;stroke-linejoin:miter;stroke:rgb(0%,84.705882%,100%);stroke-opacity:1;stroke-miterlimit:10;" d="M 1270.997041 1501.284189 C 1473.894297 1149.385918 1713.016895 851.595937 1940.017256 654.105977 C 2213.49208 416.114316 2473.784414 322.882656 2614.091348 403.815371 C 2760.300361 488.105557 2813.38374 776.600645 2735.10166 1156.489619 C 2675.90415 1443.712402 2534.713672 1785.008135 2341.994854 2119.094141 C 2144.504893 2461.591494 1918.317393 2763.304414 1694.391768 2959.097969 C 1411.091924 3206.808623 1137.086973 3296.400078 993.705303 3213.700273 C 854.493965 3133.403711 801.304561 2870.390059 867.994531 2518.703838 C 924.400039 2221.302617 1066.014619 1856.610615 1270.997041 1501.284189 Z M 1270.997041 1501.284189 " transform="matrix(0.110528,0,0,0.110528,0,0)"/>
<path style="fill:none;stroke-width:144.7456;stroke-linecap:butt;stroke-linejoin:miter;stroke:rgb(0%,84.705882%,100%);stroke-opacity:1;stroke-miterlimit:10;" d="M 1271.491826 2119.800977 C 1067.99376 1768.185439 929.383232 1412.39957 871.599395 1117.083516 C 802.011396 761.297646 851.207178 489.201152 991.408086 408.091729 C 1137.511074 323.483467 1413.883926 421.592295 1703.898711 679.092627 C 1923.194561 873.790586 2148.286465 1166.597373 2341.500068 1500.400645 C 2539.59084 1842.615264 2688.09707 2189.212266 2745.810225 2480.888115 C 2818.897061 2850.103867 2759.699551 3132.20209 2616.388564 3215.113945 C 2477.283252 3295.587217 2222.892998 3210.413486 1951.50334 2976.910234 C 1722.311787 2779.596982 1477.004375 2474.809326 1271.491826 2119.800977 Z M 1271.491826 2119.800977 " transform="matrix(0.110528,0,0,0.110528,0,0)"/>
</g>
</svg>

<svg id="Layer_2" xmlns="http://www.w3.org/2000/svg" viewBox="0 0 3618.6 3618.6" width="3618.6" height="3618.6"><style>.st0{fill:#222}.st1{fill:#00d8ff}.st2{fill:none;stroke:#00d8ff;stroke-width:144.7456;stroke-miterlimit:10}</style><path class="st0" d="M0 0h3618.6v3618.6H0z"/><circle class="st1" cx="1806.5" cy="1807.1" r="302.6"/><path class="st2" d="M1806.5 1191.9c406.2 0 783.6 58.3 1068.1 156.2 342.8 118 553.6 296.9 553.6 458.9 0 168.8-223.4 358.9-591.5 480.8-278.3 92.2-644.6 140.4-1030.2 140.4-395.4 0-769.7-45.2-1051.2-141.4-356.1-121.7-570.6-314.2-570.6-479.8 0-160.7 201.3-338.2 539.3-456 285.6-99.5 672.3-159.1 1082.5-159.1z"/><path class="st2" d="M1271 1501.3c202.9-351.9 442-649.7 669-847.2 273.5-238 533.8-331.2 674.1-250.3 146.2 84.3 199.3 372.8 121 752.7-59.2 287.2-200.4 628.5-393.1 962.6-197.5 342.5-423.7 644.2-647.6 840-283.3 247.7-557.3 337.3-700.7 254.6-139.2-80.3-192.4-343.3-125.7-695 56.4-297.4 198-662.1 403-1017.4z"/><path class="st2" d="M1271.5 2119.8c-203.5-351.6-342.1-707.4-399.9-1002.7-69.6-355.8-20.4-627.9 119.8-709 146.1-84.6 422.5 13.5 712.5 271 219.3 194.7 444.4 487.5 637.6 821.3 198.1 342.2 346.6 688.8 404.3 980.5 73.1 369.2 13.9 651.3-129.4 734.2-139.1 80.5-393.5-4.7-664.9-238.2-229.2-197.3-474.5-502.1-680-857.1z"/></svg>
